X:338
T:El Cant dels Ocells
Z:Jack Campin, http://www.campin.me.uk/
G:Christmas carol
M:2/4
L:1/8
Q:1/4=72
K:DMin
A   | DE  FG|    A3        d    |   ^cA B=c|A3       \
B   | cB  dd|   ^c>B A2         |        
      A4    |   ^FG  AB         |    G3   G|cB AG|A3 \
G/F/|(EF) GF|    A4             |    D2 z2 |
      A4    |   ^FG (A/B/)(c/B/)|({B}G3)  G|cB AG|A3 \
G/F/| EF  GF|({F}A4)            |    D4-   |D3  |]

